;FLAVOR:RepRap
;TIME:819
;Filament used: 2.3405m
;Layer height: 0.6
;MINX:87.718
;MINY:65.37
;MINZ:0.3
;MAXX:132.282
;MAXY:109.87
;MAXZ:5.7
;Generated with Cura_SteamEngine 4.8.0
T0
M190 S60
M104 S200
M109 S200
M82 ;absolute extrusion mode
G28 ;Home
G1 Z15.0 F6000 ;Move the platform down 15mm
;Prime the extruder
G92 E0
G1 F200 E3
G92 E0
M83 ;relative extrusion mode
G1 F1500 E-6.5
;LAYER_COUNT:10
;LAYER:0
M107
G0 F3600 X88.428 Y76.933 Z0.3
;TYPE:SUPPORT
G1 F1500 E6.5
G1 F1800 X88.698 Y76.763 E0.01592
G1 X90.105 Y77.736 E0.08535
G1 X90.164 Y77.897 E0.00855
G1 X90.372 Y78.041 E0.01262
G1 X90.543 Y78.04 E0.00853
G1 X91.672 Y78.821 E0.06849
G1 X92.435 Y80.654 E0.09906
G1 X92.479 Y80.719 E0.00392
G1 X102.667 Y90.895 E0.7184
G1 X102.731 Y90.94 E0.0039
G1 X107.822 Y93.045 E0.27485
G1 X107.9 Y93.061 E0.00397
G1 X112.112 Y93.056 E0.21014
G1 X112.19 Y93.04 E0.00397
G1 X117.275 Y90.923 E0.2748
G1 X117.341 Y90.879 E0.00396
G1 X127.509 Y80.671 E0.71882
G1 X127.551 Y80.604 E0.00395
G1 X128.312 Y78.757 E0.09966
G1 X129.429 Y77.992 E0.06754
G1 X129.603 Y77.993 E0.00868
G1 X129.813 Y77.85 E0.01268
G1 X129.871 Y77.69 E0.00849
G1 X131.297 Y76.713 E0.08624
G1 X131.547 Y76.871 E0.01475
G1 X131.297 Y79.828 E0.14805
G1 X130.77 Y83.113 E0.16598
G1 X130.446 Y85.109 E0.10088
G1 X129.842 Y86.784 E0.08883
G1 X130.045 Y87.295 E0.02743
G1 X131.475 Y88.025 E0.0801
G1 X131.31 Y89.977 E0.09773
G1 X130.328 Y96.091 E0.30894
G1 X130.543 Y96.564 E0.02592
G1 X131.57 Y97.205 E0.0604
G1 X131.323 Y100.137 E0.1468
G1 X130.473 Y105.414 E0.26666
G1 X130.013 Y106.689 E0.06762
G1 X129.879 Y106.944 E0.01437
G1 X129.596 Y107.207 E0.01927
G1 X129.312 Y107.331 E0.01546
G1 X129.111 Y107.357 E0.01011
G1 X100.646 Y107.393 E1.42013
G1 X90.946 Y107.403 E0.48394
G1 X90.622 Y107.337 E0.0165
G1 X90.332 Y107.173 E0.01662
G1 X90.173 Y106.999 E0.01176
G1 X90.027 Y106.724 E0.01553
G1 X89.572 Y105.471 E0.06651
G1 X88.709 Y100.201 E0.26642
G1 X88.454 Y97.253 E0.14763
G1 X89.479 Y96.606 E0.06047
G1 X89.693 Y96.134 E0.02586
G1 X88.697 Y90.053 E0.30742
G1 X88.527 Y88.075 E0.09905
G1 X89.956 Y87.341 E0.08015
G1 X90.156 Y86.831 E0.02733
G1 X89.545 Y85.152 E0.08914
G1 X88.684 Y79.896 E0.26572
G1 X88.428 Y76.933 E0.14838
G0 F3600 X88.623 Y77.343
G1 F1800 X89.257 Y77.343 E0.03163
G0 F3600 X90.678 Y78.328
G1 F1800 X90.678 Y107.185 E1.43968
G0 F3600 X90.185 Y106.68
G1 F1800 X129.836 Y106.68 E1.9782
G0 F3600 X128.016 Y107.199
G1 F1800 X128.016 Y79.894 E1.36225
G0 F3600 X127.969 Y80.01
G1 F1800 X131.105 Y80.01 E0.15646
G0 F3600 X130.683 Y82.645
G1 F1800 X130.683 Y77.327 E0.26532
G0 F3600 X130.659 Y77.343
G1 F1800 X131.346 Y77.343 E0.03427
G0 F3600 X130.677 Y82.677
G1 F1800 X125.737 Y82.677 E0.24646
G0 F3600 X125.349 Y83.066
G1 F1800 X125.349 Y107.202 E1.20415
G0 F3600 X122.682 Y107.206
G1 F1800 X122.682 Y85.744 E1.07074
G0 F3600 X123.081 Y85.344
G1 F1800 X130.19 Y85.344 E0.35467
G0 F3600 X130.683 Y87.801
G1 F1800 X130.683 Y92.872 E0.25299
G0 F3600 X130.606 Y93.345
G1 F1800 X89.398 Y93.345 E2.05588
G0 F3600 X89.835 Y96.012
G1 F1800 X130.178 Y96.012 E2.01272
G0 F3600 X130.683 Y96.84
G1 F1800 X130.683 Y103.107 E0.31266
G0 F3600 X130.536 Y104.013
G1 F1800 X89.494 Y104.013 E2.04759
G0 F3600 X89.057 Y101.346
G1 F1800 X130.966 Y101.346 E2.09085
G0 F3600 X131.285 Y98.679
G1 F1800 X88.737 Y98.679 E2.12273
G0 F3600 X88.96 Y90.678
G1 F1800 X102.223 Y90.678 E0.66169
G0 F3600 X101.346 Y89.803
G1 F1800 X101.346 Y107.233 E0.86959
G0 F3600 X98.679 Y107.236
G1 F1800 X98.679 Y87.139 E1.00264
G0 F3600 X99.553 Y88.011
G1 F1800 X89.003 Y88.011 E0.52634
G0 F3600 X89.785 Y85.344
G1 F1800 X96.883 Y85.344 E0.35412
G0 F3600 X96.012 Y84.475
G1 F1800 X96.012 Y107.238 E1.13565
G0 F3600 X93.345 Y107.241
G1 F1800 X93.345 Y81.811 E1.26871
G0 F3600 X94.213 Y82.677
G1 F1800 X89.301 Y82.677 E0.24506
G0 F3600 X88.863 Y80.01
G1 F1800 X91.994 Y80.01 E0.15621
G0 F3600 X104.013 Y91.643
G1 F1800 X104.013 Y107.229 E0.77759
G0 F3600 X106.68 Y107.226
G1 F1800 X106.68 Y92.747 E0.72236
G0 F3600 X109.347 Y93.219
G1 F1800 X109.347 Y107.222 E0.69861
G0 F3600 X112.014 Y107.219
G1 F1800 X112.014 Y93.216 E0.69861
G0 F3600 X114.681 Y92.176
G1 F1800 X114.681 Y107.216 E0.75035
G0 F3600 X117.348 Y107.212
G1 F1800 X117.348 Y91.065 E0.80558
G0 F3600 X117.768 Y90.678
G1 F1800 X131.035 Y90.678 E0.66189
G0 F3600 X131.098 Y88.011
G1 F1800 X120.425 Y88.011 E0.53248
G0 F3600 X120.015 Y88.421
G1 F1800 X120.015 Y107.209 E0.93734
G1 F1500 E-6.5
;MESH:rouleu.stl
G0 F3600 X114.726 Y86.538
G0 X113.816 Y85.632
G0 X119.601 Y71.38
G0 X119.693 Y71.419
;TYPE:WALL-INNER
G1 F1500 E6.5
G1 F1800 X113.832 Y85.643 E0.76752
G1 X111.46 Y88.024 E0.16768
G1 X110.407 Y88.462 E0.0569
G1 X109.596 Y88.464 E0.04046
G1 X108.542 Y88.027 E0.05692
G1 X106.163 Y85.652 E0.16771
G1 X100.266 Y71.444 E0.76747
G1 X100.152 Y71.168 E0.0149
G1 X100.45 Y71.168 E0.00869
G1 X100.451 Y71.168 E0.00005
G1 X119.507 Y71.143 E0.95071
G1 X119.509 Y71.143 E0.0001
G1 X119.806 Y71.143 E0.01482
G1 X119.694 Y71.418 E0.00866
G1 X119.693 Y71.419 E0.00007
G0 F3600 X120.291 Y71.018
;TYPE:WALL-OUTER
G1 F1800 X114.172 Y85.868 E0.8013
G1 X111.686 Y88.363 E0.17572
G1 X110.487 Y88.862 E0.06479
G1 X109.516 Y88.864 E0.04844
G1 X108.316 Y88.367 E0.0648
G1 X105.825 Y85.88 E0.17561
G1 X99.668 Y71.045 E0.80133
G1 X99.554 Y70.769 E0.0149
G1 X99.852 Y70.769 E0.00869
G1 X99.853 Y70.769 E0.00005
G1 X120.105 Y70.742 E1.01038
G1 X120.107 Y70.742 E0.0001
G1 X120.404 Y70.742 E0.01482
G1 X120.292 Y71.017 E0.00866
G1 X120.291 Y71.018 E0.00007
G0 F3600 X120.215 Y71.202
G0 X119.723 Y71.198
G0 X119.223 Y71.533
;TYPE:SKIN
G1 F1800 X113.501 Y85.422 E0.74943
G1 X111.238 Y87.694 E0.15998
G1 X110.329 Y88.072 E0.04911
G1 X109.676 Y88.074 E0.03258
G1 X108.76 Y87.694 E0.04948
G1 X106.494 Y85.432 E0.15974
G1 X100.736 Y71.558 E0.74942
G1 X119.223 Y71.533 E0.92232
G0 F3600 X118.868 Y71.917
G1 F1800 X118.665 Y71.713 E0.01436
G0 F3600 X118.1 Y71.714
G1 F1800 X118.704 Y72.317 E0.04258
G0 F3600 X118.539 Y72.718
G1 F1800 X117.535 Y71.714 E0.07084
G0 F3600 X116.97 Y71.715
G1 F1800 X118.373 Y73.119 E0.09902
G0 F3600 X118.209 Y73.52
G1 F1800 X116.406 Y71.716 E0.12725
G0 F3600 X115.841 Y71.717
G1 F1800 X118.043 Y73.92 E0.1554
G0 F3600 X117.878 Y74.321
G1 F1800 X115.276 Y71.718 E0.18362
G0 F3600 X114.711 Y71.719
G1 F1800 X117.714 Y74.722 E0.21188
G0 F3600 X117.548 Y75.122
G1 F1800 X114.146 Y71.719 E0.24006
G0 F3600 X113.581 Y71.72
G1 F1800 X117.383 Y75.523 E0.26829
G0 F3600 X117.218 Y75.923
G1 F1800 X113.016 Y71.721 E0.29647
G0 F3600 X112.451 Y71.722
G1 F1800 X117.053 Y76.324 E0.3247
G0 F3600 X116.888 Y76.724
G1 F1800 X111.886 Y71.723 E0.35288
G0 F3600 X111.321 Y71.723
G1 F1800 X116.723 Y77.125 E0.38114
G0 F3600 X116.558 Y77.526
G1 F1800 X110.756 Y71.724 E0.40936
G0 F3600 X110.191 Y71.725
G1 F1800 X116.393 Y77.926 E0.43755
G0 F3600 X116.228 Y78.327
G1 F1800 X109.627 Y71.726 E0.46574
G0 F3600 X109.062 Y71.726
G1 F1800 X116.063 Y78.727 E0.49396
G0 F3600 X115.898 Y79.128
G1 F1800 X108.497 Y71.727 E0.52218
G0 F3600 X107.932 Y71.728
G1 F1800 X115.733 Y79.529 E0.5504
G0 F3600 X115.568 Y79.929
G1 F1800 X107.367 Y71.729 E0.57859
G0 F3600 X106.802 Y71.73
G1 F1800 X115.403 Y80.33 E0.60681
G0 F3600 X115.237 Y80.731
G1 F1800 X106.237 Y71.731 E0.635
G0 F3600 X105.672 Y71.731
G1 F1800 X115.073 Y81.132 E0.66329
G0 F3600 X114.907 Y81.532
G1 F1800 X105.107 Y71.732 E0.69144
G0 F3600 X104.542 Y71.733
G1 F1800 X114.742 Y81.933 E0.71967
G0 F3600 X114.578 Y82.334
G1 F1800 X103.978 Y71.734 E0.74789
G0 F3600 X103.413 Y71.735
G1 F1800 X114.412 Y82.734 E0.77604
G0 F3600 X114.247 Y83.135
G1 F1800 X102.848 Y71.735 E0.8043
G0 F3600 X102.283 Y71.736
G1 F1800 X114.082 Y83.535 E0.83248
G0 F3600 X113.917 Y83.936
G1 F1800 X101.718 Y71.737 E0.86071
G0 F3600 X101.153 Y71.738
G1 F1800 X113.752 Y84.337 E0.88893
G0 F3600 X113.587 Y84.737
G1 F1800 X101.3 Y72.45 E0.86691
G1 X101.23 Y72.38
G0 F3600 X101.702 Y73.418
G1 F1800 X113.422 Y85.138 E0.82691
G0 F3600 X113.193 Y85.475
G1 F1800 X102.103 Y74.384 E0.78249
G1 X102.033 Y74.314
G0 F3600 X102.505 Y75.352
G1 F1800 X112.911 Y85.758 E0.7342
G0 F3600 X112.628 Y86.041
G1 F1800 X102.906 Y76.319 E0.68594
G1 X102.836 Y76.249
G0 F3600 X103.307 Y77.286
G1 F1800 X112.346 Y86.325 E0.63775
G0 F3600 X112.064 Y86.608
G1 F1800 X103.709 Y78.253 E0.58949
G1 X103.639 Y78.183
G0 F3600 X104.11 Y79.22
G1 F1800 X111.782 Y86.892 E0.5413
G0 F3600 X111.5 Y87.175
G1 F1800 X104.511 Y80.187 E0.49308
G1 X104.441 Y80.117
G0 F3600 X104.913 Y81.154
G1 F1800 X111.217 Y87.458 E0.44478
G0 F3600 X110.851 Y87.658
G1 F1800 X105.314 Y82.121 E0.39067
G1 X105.244 Y82.051
G0 F3600 X105.715 Y83.088
G1 F1800 X110.452 Y87.824 E0.33419
G0 F3600 X109.954 Y87.892
G1 F1800 X106.117 Y84.055 E0.27072
G1 X106.047 Y83.985
G0 F3600 X106.518 Y85.022
G1 F1800 X109.161 Y87.664 E0.18644
G1 X109.231 Y87.734
G1 F1500 E-6.5
G0 F3600 X119.79 Y71.154
G0 X119.789 Y69.584
G0 X129.331 Y67.796
G0 X129.368 Y67.704
;TYPE:WALL-INNER
G1 F1500 E6.5
G1 F1800 X129.515 Y67.795 E0.00863
G1 X129.616 Y68.009 E0.01181
G1 X129.64 Y68.226 E0.01089
G1 X129.592 Y68.468 E0.01231
G1 X129.192 Y69.573 E0.05863
G1 X90.765 Y69.62 E1.91713
G1 X90.362 Y68.513 E0.05877
G1 X90.312 Y68.273 E0.01223
G1 X90.338 Y68.034 E0.01199
G1 X90.43 Y67.849 E0.01031
G1 X90.609 Y67.737 E0.01053
G1 X90.932 Y67.674 E0.01642
G1 X129.013 Y67.627 E1.89987
G1 X129.368 Y67.704 E0.01812
G0 F3600 X129.331 Y67.796
G0 X90.877 Y69.519
G0 X90.877 Y70.019
;TYPE:WALL-OUTER
G1 F1800 X90.486 Y70.024 E0.01951
G1 X89.978 Y68.628 E0.07411
G1 X89.907 Y68.29 E0.01723
G1 X89.948 Y67.92 E0.01857
G1 X90.121 Y67.57 E0.01948
G1 X90.459 Y67.358 E0.01991
G1 X90.892 Y67.274 E0.02201
G1 X129.056 Y67.227 E1.90401
G1 X129.518 Y67.327 E0.02358
G1 X129.827 Y67.518 E0.01812
G1 X130.007 Y67.899 E0.02102
G1 X130.045 Y68.242 E0.01722
G1 X129.978 Y68.576 E0.017
G1 X129.471 Y69.976 E0.07429
G1 X129.079 Y69.972 E0.01956
G1 X92.892 Y70.018 E1.80538
G1 X90.877 Y70.019 E0.10053
G0 F3600 X90.677 Y70.021
G0 X91.038 Y69.23
;TYPE:SKIN
G1 F1800 X90.739 Y68.406 E0.04373
G1 X90.719 Y68.143 E0.01316
G1 X90.757 Y68.105 E0.00268
G1 X90.967 Y68.064 E0.01067
G1 X128.973 Y68.017 E1.89613
G1 X129.213 Y68.069 E0.01225
G1 X129.246 Y68.212 E0.00732
G1 X129.217 Y68.358 E0.00743
G1 X128.918 Y69.183 E0.04378
G1 X91.038 Y69.23 E1.88984
G0 F3600 X91.677 Y69.049
G1 F1800 X90.909 Y68.281 E0.05419
G0 F3600 X91.437 Y68.244
G1 F1800 X92.242 Y69.048 E0.05676
G0 F3600 X92.807 Y69.048
G1 F1800 X92.002 Y68.243 E0.0568
G0 F3600 X92.567 Y68.242
G1 F1800 X93.372 Y69.047 E0.0568
G0 F3600 X93.937 Y69.046
G1 F1800 X93.132 Y68.242 E0.05676
G0 F3600 X93.697 Y68.241
G1 F1800 X94.501 Y69.046 E0.05676
G0 F3600 X95.066 Y69.045
G1 F1800 X94.262 Y68.24 E0.05676
G0 F3600 X94.827 Y68.24
G1 F1800 X95.631 Y69.044 E0.05673
G0 F3600 X96.196 Y69.044
G1 F1800 X95.392 Y68.239 E0.05676
G0 F3600 X95.957 Y68.238
G1 F1800 X96.761 Y69.043 E0.05676
G0 F3600 X97.326 Y69.042
G1 F1800 X96.522 Y68.237 E0.05676
G0 F3600 X97.087 Y68.237
G1 F1800 X97.891 Y69.041 E0.05673
G0 F3600 X98.456 Y69.041
G1 F1800 X97.652 Y68.236 E0.05676
G0 F3600 X98.217 Y68.235
G1 F1800 X99.021 Y69.04 E0.05676
G0 F3600 X99.586 Y69.039
G1 F1800 X98.782 Y68.235 E0.05673
G0 F3600 X99.347 Y68.234
G1 F1800 X100.151 Y69.038 E0.05673
G0 F3600 X100.716 Y69.037
G1 F1800 X99.912 Y68.233 E0.05673
G0 F3600 X100.477 Y68.232
G1 F1800 X101.281 Y69.036 E0.05673
G0 F3600 X101.846 Y69.036
G1 F1800 X101.042 Y68.232 E0.05673
G0 F3600 X101.607 Y68.231
G1 F1800 X102.41 Y69.035 E0.05669
G0 F3600 X102.975 Y69.034
G1 F1800 X102.171 Y68.23 E0.05673
G0 F3600 X102.736 Y68.23
G1 F1800 X103.54 Y69.034 E0.05673
G0 F3600 X104.105 Y69.033
G1 F1800 X103.301 Y68.229 E0.05673
G0 F3600 X103.866 Y68.228
G1 F1800 X104.67 Y69.032 E0.05673
G0 F3600 X105.235 Y69.032
G1 F1800 X104.431 Y68.228 E0.05673
G0 F3600 X104.996 Y68.227
G1 F1800 X105.8 Y69.031 E0.05673
G0 F3600 X106.365 Y69.03
G1 F1800 X105.561 Y68.226 E0.05673
G0 F3600 X106.126 Y68.225
G1 F1800 X106.93 Y69.029 E0.05673
M104 S190
G0 F3600 X107.495 Y69.029
G1 F1800 X106.691 Y68.225 E0.05673
G0 F3600 X107.256 Y68.224
G1 F1800 X108.06 Y69.028 E0.05673
G0 F3600 X108.625 Y69.027
G1 F1800 X107.821 Y68.223 E0.05673
G0 F3600 X108.386 Y68.223
G1 F1800 X109.19 Y69.027 E0.05673
G0 F3600 X109.755 Y69.026
G1 F1800 X108.951 Y68.222 E0.05673
G0 F3600 X109.516 Y68.221
G1 F1800 X110.32 Y69.025 E0.05673
G0 F3600 X110.885 Y69.024
G1 F1800 X110.081 Y68.22 E0.05673
G0 F3600 X110.646 Y68.22
G1 F1800 X111.45 Y69.024 E0.05673
G0 F3600 X112.015 Y69.023
G1 F1800 X111.211 Y68.219 E0.05673
G0 F3600 X111.776 Y68.218
G1 F1800 X112.58 Y69.022 E0.05673
G0 F3600 X113.145 Y69.022
G1 F1800 X112.341 Y68.218 E0.05673
G0 F3600 X112.906 Y68.217
G1 F1800 X113.71 Y69.021 E0.05673
G0 F3600 X114.275 Y69.02
G1 F1800 X113.471 Y68.216 E0.05673
G0 F3600 X114.036 Y68.216
G1 F1800 X114.84 Y69.019 E0.05669
G0 F3600 X115.405 Y69.019
G1 F1800 X114.601 Y68.215 E0.05673
G0 F3600 X115.166 Y68.214
G1 F1800 X115.97 Y69.018 E0.05673
G0 F3600 X116.535 Y69.017
G1 F1800 X115.731 Y68.213 E0.05673
G0 F3600 X116.296 Y68.213
G1 F1800 X117.1 Y69.017 E0.05673
G0 F3600 X117.665 Y69.016
G1 F1800 X116.861 Y68.212 E0.05673
G0 F3600 X117.426 Y68.211
G1 F1800 X118.23 Y69.015 E0.05673
G0 F3600 X118.795 Y69.015
G1 F1800 X117.991 Y68.211 E0.05673
G0 F3600 X118.556 Y68.21
G1 F1800 X119.36 Y69.014 E0.05673
G0 F3600 X119.925 Y69.013
G1 F1800 X119.121 Y68.209 E0.05673
G0 F3600 X119.686 Y68.208
G1 F1800 X120.49 Y69.012 E0.05673
G0 F3600 X121.055 Y69.012
G1 F1800 X120.251 Y68.208 E0.05673
G0 F3600 X120.816 Y68.207
G1 F1800 X121.62 Y69.011 E0.05673
G0 F3600 X122.185 Y69.01
G1 F1800 X121.381 Y68.206 E0.05673
G0 F3600 X121.946 Y68.206
G1 F1800 X122.75 Y69.01 E0.05673
G0 F3600 X123.315 Y69.009
G1 F1800 X122.511 Y68.205 E0.05673
G0 F3600 X123.076 Y68.204
G1 F1800 X123.88 Y69.008 E0.05673
G0 F3600 X124.445 Y69.007
G1 F1800 X123.641 Y68.203 E0.05673
G0 F3600 X124.206 Y68.203
G1 F1800 X125.01 Y69.007 E0.05673
G0 F3600 X125.575 Y69.006
G1 F1800 X124.771 Y68.202 E0.05673
G0 F3600 X125.336 Y68.201
G1 F1800 X126.14 Y69.005 E0.05673
G0 F3600 X126.705 Y69.005
G1 F1800 X125.901 Y68.201 E0.05673
G0 F3600 X126.466 Y68.2
G1 F1800 X127.27 Y69.004 E0.05673
G0 F3600 X127.835 Y69.003
G1 F1800 X127.031 Y68.199 E0.05673
G0 F3600 X127.596 Y68.199
G1 F1800 X128.399 Y69.003 E0.05669
G0 F3600 X128.838 Y68.875
G1 F1800 X128.16 Y68.198 E0.0478
G0 F3600 X128.725 Y68.197
G1 F1800 X128.988 Y68.459 E0.01852
G1 F1500 E-6.5
;MESH:NONMESH
G0 F600 X128.988 Y68.459 Z0.9
G0 F3600 X90.776 Y69.604
G0 X90.794 Y70.885
G0 X90.678 Y89.062
;TIME_ELAPSED:70.690138
;LAYER:1
M106 S68
;TYPE:SUPPORT
G1 F1500 E6.5
G1 F2700 X90.264 Y88.648 E0.05842
G1 X90.305 Y88.548 E0.01078
G1 X89.389 Y87.632 E0.12926
G1 X88.526 Y88.075 E0.09679
G1 X88.696 Y90.051 E0.19789
G1 X89.693 Y96.135 E0.61516
G1 X89.479 Y96.607 E0.05171
G1 X88.454 Y97.253 E0.12089
G1 X88.71 Y100.21 E0.29615
G1 X89.572 Y105.469 E0.53175
G0 F5400 X89.573 Y105.471
G1 F2700 X90.025 Y106.719 E0.13244
G1 X90.174 Y106.999 E0.03165
G0 F5400 X90.175 Y107
G1 F2700 X90.329 Y107.17 E0.02289
G1 X90.341 Y107.18 E0.00156
G1 X90.623 Y107.337 E0.0322
G1 X90.678 Y107.348 E0.0056
G1 X90.678 Y89.062 E1.82458
G1 X93.345 Y91.725 E0.37606
G1 X93.345 Y107.401 E1.56416
G1 X96.012 Y107.398 E0.26611
G1 X96.012 Y94.094 E1.32748
G1 X98.679 Y95.197 E0.28797
G1 X98.679 Y107.396 E1.21722
G1 X100.646 Y107.393 E0.19627
G1 X101.346 Y107.393 E0.06985
G1 X101.346 Y96.3 E1.10686
G1 X104.013 Y97.403 E0.28797
G1 X104.013 Y107.389 E0.99641
G1 X106.68 Y107.386 E0.26611
G1 X106.68 Y98.123 E0.92427
G1 X109.347 Y98.12 E0.26611
G1 X109.347 Y107.382 E0.92417
G1 X112.014 Y107.379 E0.26611
G1 X112.014 Y98.117 E0.92417
G1 X114.226 Y98.115 E0.22071
G1 X114.304 Y98.099 E0.00794
G1 X114.681 Y97.942 E0.04075
G1 X114.681 Y107.376 E0.94133
G1 X117.348 Y107.372 E0.26611
G1 X117.348 Y96.831 E1.05179
G1 X120.015 Y95.721 E0.28824
G1 X120.015 Y107.369 E1.16224
G1 X122.682 Y107.366 E0.26611
G1 X122.682 Y94.61 E1.2728
G1 X124.473 Y93.865 E0.19355
G1 X124.539 Y93.821 E0.00791
G1 X125.349 Y93.007 E0.11458
G1 X125.349 Y107.362 E1.43235
G1 X128.016 Y107.359 E0.26611
G1 X128.016 Y90.328 E1.69936
G1 X129.738 Y88.599 E0.24349
G1 X129.696 Y88.498 E0.01091
G1 X130.607 Y87.583 E0.12883
